X:308
T:Reel 308
M:4/4
K:Amaj
L:1/8
C>A, (3A,G,A, CA,DC|B,E,G,A, B,CDB,|C>A, (3A,G,A, CA,EA,|G,B,E,B, G,2ED|C<A,A,G, E,A, (3CB,A, |G,B,B, (3B,G,B,  (3DCB, |CEDF EDCA,B,G,|A,A,B,G, A,2CD|EAAG ABAG|EDCB, CA,B,G,|E,>G,G,B, G,B,G,B,|DB,CD B,2ED|EAAB AGAG|EAAG A2cA|BABA GEFD|ECDB, A,2|
